public/assets/routes_avatar/profitCenterTaxReturn.svg

<?xml version="1.0" encoding="UTF-8"?>
<svg width="60px" height="60px" viewBox="0 0 60 60" version="1.1" xmlns="http://www.w3.org/2000/svg" xmlns:xlink="http://www.w3.org/1999/xlink">
    <!-- Generator: Sketch 49.3 (51167) - http://www.bohemiancoding.com/sketch -->
    <title>profitCenterTaxReturn</title>
    <desc>Created with Sketch.</desc>
    <defs>
        <rect id="path-1" x="3.875" y="0" width="24.21875" height="26.1818182" rx="1.92"></rect>
        <rect id="path-2" x="0" y="3.87878788" width="24.21875" height="26.1818182" rx="1.92"></rect>
        <rect id="path-3" x="14" y="22" width="14" height="8" rx="1"></rect>
    </defs>
    <g id="icon" stroke="none" stroke-width="1" fill="none" fill-rule="evenodd">
        <g id="profitCenterTaxReturn">
            <circle id="Oval-Copy" fill="#07D3CF" cx="30" cy="30" r="30"></circle>
            <g id="Group-76" transform="translate(16.000000, 15.000000)">
                <g id="Rectangle-15">
                    <use fill="#07D3CF" fill-rule="evenodd" xlink:href="#path-1"></use>
                    <rect stroke="#FFFFFF" stroke-width="1.5" x="4.625" y="0.75" width="22.71875" height="24.6818182" rx="1.92"></rect>
                </g>
                <g id="Rectangle-15-Copy">
                    <use fill="#07D3CF" fill-rule="evenodd" xlink:href="#path-2"></use>
                    <rect stroke="#FFFFFF" stroke-width="1.5" x="0.75" y="4.62878788" width="22.71875" height="24.6818182" rx="1.92"></rect>
                </g>
                <rect id="Rectangle-16" fill="#FFFFFF" x="3.875" y="8.72727273" width="14" height="1.5" rx="0.75"></rect>
                <rect id="Rectangle-16-Copy" fill="#FFFFFF" x="3.875" y="13.5757576" width="14" height="1.5" rx="0.75"></rect>
                <rect id="Rectangle-16-Copy-3" fill="#FFFFFF" x="3.875" y="18.4242424" width="14" height="1.5" rx="0.75"></rect>
                <rect id="Rectangle-16-Copy-2" fill="#FFFFFF" x="3.875" y="23.2727273" width="10" height="1.5" rx="0.75"></rect>
                <rect id="Rectangle-29" fill="#07D3CF" x="13" y="21" width="16" height="10"></rect>
                <g id="Rectangle-29">
                    <use fill="#07D3CF" fill-rule="evenodd" xlink:href="#path-3"></use>
                    <rect stroke="#FFFFFF" stroke-width="1" x="14.5" y="22.5" width="13" height="7" rx="1"></rect>
                </g>
                <path d="M17.1186083,25.153929 L18.010543,25.153929 L18.010543,24.6759957 C17.7733263,24.714747 17.5313653,24.7405813 17.28466,24.7578041 L17.14233,24.378902 C17.9298893,24.3186222 18.5656299,24.2023681 19.0495519,24.0258342 L19.2677912,24.3659849 C19.0068529,24.4564047 18.7411703,24.5339074 18.4659989,24.5941873 L18.4659989,25.153929 L19.3152346,25.153929 L19.3152346,25.5457481 L18.4659989,25.5457481 L18.4659989,25.6835307 C18.7601476,25.8988159 19.0542963,26.1485468 19.3579336,26.4241119 L19.0922509,26.7900969 C18.8455456,26.5059203 18.6367949,26.277718 18.4659989,26.1097955 L18.4659989,28 L18.010543,28 L18.010543,26.2346609 C17.797048,26.6006459 17.526621,26.9364909 17.2040063,27.2465016 L17,26.7685684 C17.455456,26.4155005 17.7923036,26.0107643 18.010543,25.5586652 L18.010543,25.5457481 L17.1186083,25.5457481 L17.1186083,25.153929 Z M19.6425936,24.4305705 L20.0885609,24.4305705 L20.0885609,27.065662 L19.6425936,27.065662 L19.6425936,24.4305705 Z M20.7195572,27.9612487 L20.0126516,27.9612487 L19.9177649,27.5651238 C20.1407486,27.5780409 20.3542435,27.5866523 20.5629942,27.5866523 C20.6816025,27.5866523 20.7432789,27.5220667 20.7432789,27.3972013 L20.7432789,24.0387513 L21.1987348,24.0387513 L21.1987348,27.5005382 C21.1987348,27.8062433 21.0374275,27.9612487 20.7195572,27.9612487 Z M23.7606747,25.0592034 L25.3073274,25.0592034 L25.3073274,25.4208827 L24.761729,25.4208827 L24.761729,25.9332616 L25.2361624,25.9332616 L25.2361624,26.2863294 L24.761729,26.2863294 L24.761729,26.8848224 L25.359515,26.8848224 L25.359515,27.2465016 L23.7322088,27.2465016 L23.7322088,26.8848224 L24.3347391,26.8848224 L24.3347391,26.2863294 L23.8460727,26.2863294 L23.8460727,25.9332616 L24.3347391,25.9332616 L24.3347391,25.4208827 L23.7606747,25.4208827 L23.7606747,25.0592034 Z M23.0964681,24.7578041 L23.5424354,24.7578041 L23.5424354,27.9741658 L23.0964681,27.9741658 L23.0964681,24.7578041 Z M25.4828677,27.9784715 L25.0558777,27.9784715 L24.9515024,27.6081808 L25.3927254,27.621098 C25.4971007,27.621098 25.5540327,27.5522067 25.5540327,27.4230355 L25.5540327,24.5726588 L24.4153927,24.5726588 L24.4153927,24.1722282 L26,24.1722282 L26,27.5392896 C26,27.8320775 25.8244597,27.9784715 25.4828677,27.9784715 Z M23.5282024,24 C23.8033737,24.189451 24.0405904,24.378902 24.2303637,24.5683531 L23.9362151,24.8310011 C23.7701634,24.6501615 23.5376911,24.4607104 23.2340538,24.2583423 L23.5282024,24 Z M22.2662098,24.0645856 C22.5508698,24.2454252 22.7975751,24.4305705 22.9968371,24.6157158 L22.6742225,24.9085038 C22.4986821,24.7319699 22.2519768,24.5468245 21.9388508,24.3487621 L22.2662098,24.0645856 Z M22.1523458,25.0936491 C22.4464945,25.3003229 22.6979441,25.5113025 22.8972061,25.7179763 L22.5745915,26.0107643 C22.3990511,25.8170075 22.1523458,25.606028 21.8297312,25.3778256 L22.1523458,25.0936491 Z M22.5366368,26.2561895 L22.9351608,26.393972 C22.7548761,26.9407966 22.5508698,27.4574812 22.3278861,27.9397201 L21.9103848,27.7717976 C22.1523458,27.2809473 22.3610965,26.7728741 22.5366368,26.2561895 Z" id="利润" fill="#FFFFFF"></path>
            </g>
        </g>
    </g>
</svg>

<svg width="60" height="60" xmlns="http://www.w3.org/2000/svg" xmlns:xlink="http://www.w3.org/1999/xlink"><defs><rect id="a" x="3.875" y="0" width="24.219" height="26.182" rx="1.92"/><rect id="b" x="0" y="3.879" width="24.219" height="26.182" rx="1.92"/><rect id="c" x="14" y="22" width="14" height="8" rx="1"/></defs><g fill="none" fill-rule="evenodd"><circle fill="#07D3CF" cx="30" cy="30" r="30"/><g transform="translate(16 15)"><use fill="#07D3CF" xlink:href="#a"/><rect stroke="#FFF" stroke-width="1.5" x="4.625" y=".75" width="22.719" height="24.682" rx="1.92"/><use fill="#07D3CF" xlink:href="#b"/><rect stroke="#FFF" stroke-width="1.5" x=".75" y="4.629" width="22.719" height="24.682" rx="1.92"/><rect fill="#FFF" x="3.875" y="8.727" width="14" height="1.5" rx=".75"/><rect fill="#FFF" x="3.875" y="13.576" width="14" height="1.5" rx=".75"/><rect fill="#FFF" x="3.875" y="18.424" width="14" height="1.5" rx=".75"/><rect fill="#FFF" x="3.875" y="23.273" width="10" height="1.5" rx=".75"/><path fill="#07D3CF" d="M13 21h16v10H13z"/><g><use fill="#07D3CF" xlink:href="#c"/><rect stroke="#FFF" x="14.5" y="22.5" width="13" height="7" rx="1"/></g><path d="M17.119 25.154h.892v-.478c-.238.039-.48.065-.726.082l-.143-.38c.788-.06 1.424-.176 1.908-.352l.218.34a7.05 7.05 0 0 1-.802.228v.56h.85v.392h-.85v.138c.294.215.588.465.892.74l-.266.366a12.303 12.303 0 0 0-.626-.68V28h-.455v-1.765a4.664 4.664 0 0 1-.807 1.012L17 26.769c.455-.353.792-.758 1.01-1.21v-.013h-.891v-.392zm2.524-.723h.446v2.635h-.446V24.43zm1.077 3.53h-.707l-.095-.396c.223.013.436.022.645.022.119 0 .18-.065.18-.19V24.04h.456V27.5c0 .305-.162.46-.48.46zm3.04-2.902h1.547v.362h-.545v.512h.474v.353h-.474v.599h.598v.362h-1.628v-.362h.603v-.599h-.489v-.353h.489v-.512h-.574v-.362zm-.664-.301h.446v3.216h-.446v-3.216zm2.387 3.22h-.427l-.104-.37.44.013c.105 0 .162-.069.162-.198v-2.85h-1.139v-.4H26v3.366c0 .293-.176.44-.517.44zM23.528 24c.275.19.513.379.702.568l-.294.263a3.869 3.869 0 0 0-.702-.573l.294-.258zm-1.262.065c.285.18.532.366.73.55l-.322.294a4.27 4.27 0 0 0-.735-.56l.327-.284zm-.114 1.029c.294.206.546.417.745.624l-.322.293a4.58 4.58 0 0 0-.745-.633l.322-.284zm.385 1.162l.398.138c-.18.547-.384 1.063-.607 1.546l-.418-.168c.242-.491.451-1 .627-1.516z" fill="#FFF"/></g></g></svg>
